img/why/4.svg

<svg width="30" height="30" viewBox="0 0 30 30" fill="none" xmlns="http://www.w3.org/2000/svg">
<path d="M26.4844 7.08984V3.51562H22.9102C22.9102 1.57711 21.333 0 19.3945 0C17.456 0 15.8789 1.57711 15.8789 3.51562H13.2422C5.9543 3.51562 0 9.47062 0 16.7578C0 24.0457 5.955 30 13.2422 30C20.5301 30 26.4844 24.045 26.4844 16.7578V14.1211C28.4229 14.1211 30 12.544 30 10.6055C30 8.66695 28.4229 7.08984 26.4844 7.08984ZM12.3633 5.30678V9.36756C13.423 9.01371 13.6362 8.84766 14.1211 8.84766C15.0904 8.84766 15.8789 9.63621 15.8789 10.6055C15.8789 11.5747 15.0904 12.3633 14.1211 12.3633C13.6355 12.3633 13.4199 12.1962 12.3633 11.8434V15.8789H10.6055C10.6055 13.9404 9.02836 12.3633 7.08984 12.3633C5.15133 12.3633 3.57422 13.9404 3.57422 15.8789H1.79115C2.21947 10.2456 6.72996 5.7351 12.3633 5.30678ZM1.79115 17.6367H5.85205C5.49773 16.576 5.33203 16.3638 5.33203 15.8789C5.33203 14.9096 6.12059 14.1211 7.08984 14.1211C8.0591 14.1211 8.84766 14.9096 8.84766 15.8789C8.84766 16.3638 8.68172 16.5766 8.32764 17.6367H12.3633V19.3945C10.4248 19.3945 8.84766 20.9716 8.84766 22.9102C8.84766 24.8487 10.4248 26.4258 12.3633 26.4258V28.2088C6.72996 27.7805 2.21947 23.27 1.79115 17.6367ZM14.1211 28.2088V24.1481C13.0614 24.5019 12.8481 24.668 12.3633 24.668C11.394 24.668 10.6055 23.8794 10.6055 22.9102C10.6055 21.9409 11.394 21.1523 12.3633 21.1523C12.8488 21.1523 13.0645 21.3194 14.1211 21.6722V17.6367H15.8789C15.8789 19.5752 17.456 21.1523 19.3945 21.1523C21.333 21.1523 22.9102 19.5746 22.9102 17.6361L24.6932 17.6367C24.2649 23.27 19.7544 27.7805 14.1211 28.2088ZM26.4844 12.3633C26.0858 12.3633 25.7838 12.182 24.7266 11.8192V15.8789H20.6323C20.9866 16.9396 21.1523 17.1519 21.1523 17.6367C21.1523 18.606 20.3638 19.3945 19.3945 19.3945C18.4253 19.3945 17.6367 18.606 17.6367 17.6367C17.6367 17.1519 17.8027 16.939 18.1567 15.8789H14.1211V14.1211C16.0596 14.1211 17.6367 12.544 17.6367 10.6055C17.6367 8.66695 16.0596 7.08984 14.1211 7.08984V5.27344H18.1808C17.8221 4.22801 17.6367 3.91395 17.6367 3.51562C17.6367 2.54637 18.4253 1.75781 19.3945 1.75781C20.3638 1.75781 21.1523 2.54637 21.1523 3.51562C21.1523 3.9143 20.9708 4.21676 20.6083 5.27344H24.7266V9.3917C25.772 9.03299 26.0861 8.84766 26.4844 8.84766C27.4536 8.84766 28.2422 9.63621 28.2422 10.6055C28.2422 11.5747 27.4536 12.3633 26.4844 12.3633Z" fill="white"/>
</svg>

<svg width="30" height="30" viewBox="0 0 30 30" fill="none" xmlns="http://www.w3.org/2000/svg"><path d="M26.484 7.09V3.516H22.91A3.52 3.52 0 0019.395 0a3.52 3.52 0 00-3.516 3.516h-2.637C5.954 3.516 0 9.47 0 16.758 0 24.046 5.955 30 13.242 30c7.288 0 13.242-5.955 13.242-13.242V14.12A3.52 3.52 0 0030 10.605a3.52 3.52 0 00-3.516-3.515zm-14.12-1.783v4.06c1.059-.353 1.272-.52 1.757-.52.97 0 1.758.79 1.758 1.758a1.76 1.76 0 01-1.758 1.758c-.486 0-.701-.167-1.758-.52v4.036h-1.758a3.52 3.52 0 00-3.515-3.516 3.52 3.52 0 00-3.516 3.516H1.791C2.22 10.246 6.73 5.735 12.363 5.307zM1.79 17.637h4.061c-.354-1.061-.52-1.273-.52-1.758 0-.97.789-1.758 1.758-1.758.97 0 1.758.789 1.758 1.758 0 .485-.166.698-.52 1.758h4.035v1.758a3.52 3.52 0 00-3.515 3.515 3.52 3.52 0 003.515 3.516v1.783C6.73 27.78 2.22 23.27 1.791 17.637zm12.33 10.572v-4.06c-1.06.353-1.273.519-1.758.519a1.76 1.76 0 01-1.758-1.758c0-.97.789-1.758 1.758-1.758.486 0 .702.167 1.758.52v-4.035h1.758a3.52 3.52 0 003.516 3.515 3.52 3.52 0 003.515-3.516h1.783c-.428 5.634-4.939 10.145-10.572 10.573zm12.363-15.846c-.398 0-.7-.181-1.757-.544v4.06h-4.095c.355 1.06.52 1.273.52 1.758a1.76 1.76 0 01-1.758 1.758 1.76 1.76 0 01-1.757-1.758c0-.485.166-.698.52-1.758H14.12V14.12a3.52 3.52 0 003.516-3.516A3.52 3.52 0 0014.12 7.09V5.273h4.06c-.359-1.045-.544-1.359-.544-1.757 0-.97.788-1.758 1.758-1.758.969 0 1.757.788 1.757 1.758 0 .398-.181.7-.544 1.757h4.119v4.119c1.045-.359 1.36-.544 1.757-.544.97 0 1.758.788 1.758 1.757a1.76 1.76 0 01-1.758 1.758z" fill="#fff"/></svg>
